X:19067
T:Xiraldilla (CT 380)
R:Xiraldilla
C:Tradicional
S:Música Tradicional Asturiana, (C) Tello & Tito. Asturies, 2001.
S:http://pagina.de/MusTradAst <telloytito@asturies.org>
N:Xiraldilla, transcrita en Uviéu
O:Uviéu
A:Asturies
Z:Cancioneru de Torner 380
M:2/4
L:1/8
Q:1/4=160
W:En un barco de vela,
W:marcho mañana;
W:en un barco de vela
W:para L'Habana.
W:
W:Entra dulce amor,
W:si vienes a verme;
W:entra dulce amor
W:si quieres quererme.
W:
W:Entra por la ventana
W:y no despiertes
W:a mis padres, que tienen
W:sueño de liebres.
W:
W:Entra dulce amor,
W:si vienes a verme;
W:entra dulce amor
W:si quieres quererme.
K:G
|d2 d>d|B2 cd|e4|ff fe|d4|
d2 d>d|B2 cd|e4|ff fe|d4|
|ee fd|c2 dd|e2 dc|B4|
ee fd|c2 dd|e2 dc|B2 z2 :||


